resources/svg/hd-fill.svg

<svg fill="currentColor" viewBox="0 0 24 24" xmlns="http://www.w3.org/2000/svg"><path d="M3 3H21C21.5523 3 22 3.44772 22 4V20C22 20.5523 21.5523 21 21 21H3C2.44772 21 2 20.5523 2 20V4C2 3.44772 2.44772 3 3 3ZM7.5 11.25V9H6V15H7.5V12.75H9.5V15H11V9H9.5V11.25H7.5ZM14.5 10.5H16C16.2761 10.5 16.5 10.7239 16.5 11V13C16.5 13.2761 16.2761 13.5 16 13.5H14.5V10.5ZM13 9V15H16C17.1046 15 18 14.1046 18 13V11C18 9.89543 17.1046 9 16 9H13Z"/></svg>

<svg xmlns="http://www.w3.org/2000/svg" viewBox="0 0 24 24" fill="currentColor">
    <g>
        <path fill="none" d="M0 0h24v24H0z"/>
        <path d="M3 3h18a1 1 0 0 1 1 1v16a1 1 0 0 1-1 1H3a1 1 0 0 1-1-1V4a1 1 0 0 1 1-1zm4.5 8.25V9H6v6h1.5v-2.25h2V15H11V9H9.5v2.25h-2zm7-.75H16a.5.5 0 0 1 .5.5v2a.5.5 0 0 1-.5.5h-1.5v-3zM13 9v6h3a2 2 0 0 0 2-2v-2a2 2 0 0 0-2-2h-3z"/>
    </g>
</svg>
